source/images/case-studies/stargrin/cover-logo.svg

<?xml version="1.0" encoding="UTF-8" standalone="no"?>
<svg width="480px" height="240px" viewBox="0 0 480 240" version="1.1" xmlns="http://www.w3.org/2000/svg" xmlns:xlink="http://www.w3.org/1999/xlink" xmlns:sketch="http://www.bohemiancoding.com/sketch/ns">
    <!-- Generator: Sketch 3.3.2 (12043) - http://www.bohemiancoding.com/sketch -->
    <title>cover-logo</title>
    <desc>Created with Sketch.</desc>
    <defs></defs>
    <g id="Page-1" stroke="none" stroke-width="1" fill="none" fill-rule="evenodd" sketch:type="MSPage">
        <g id="cover-logo" sketch:type="MSArtboardGroup" fill="#FFFFFF">
            <path d="M114.65798,123.80456 L131.074919,123.80456 C131.596091,128.495114 133.420195,131.62215 136.547231,133.70684 C139.674267,135.791531 143.843648,137.094463 149.315961,137.094463 C154.006515,137.094463 157.654723,136.312704 160.260586,134.488599 C162.86645,132.664495 163.908795,130.319218 163.908795,126.931596 C163.908795,121.980456 156.872964,117.811075 143.061889,114.944625 L142.540717,114.684039 L140.716612,114.162866 C132.899023,112.338762 127.42671,110.775244 124.820847,108.690554 C121.693811,106.86645 119.609121,104.521173 118.306189,101.13355 C116.742671,98.267101 115.960912,94.8794788 115.960912,90.4495114 C115.960912,82.8925081 118.566775,76.8990228 123.778502,72.4690554 C128.990228,68.2996743 136.807818,66.2149837 146.970684,66.2149837 C156.351792,66.2149837 163.648208,68.2996743 168.859935,72.7296417 C174.071661,77.4201954 176.938111,83.9348534 177.198697,91.4918567 L167.81759,91.4918567 C164.169381,91.4918567 161.563518,89.9283388 160.260586,86.5407166 C159.478827,84.9771987 158.436482,83.6742671 157.13355,82.6319218 C154.267101,80.5472313 150.618893,79.504886 145.667752,79.504886 C140.977199,79.504886 137.589577,80.286645 135.765472,82.1107492 C133.420195,83.9348534 132.37785,86.2801303 132.37785,89.4071661 C132.37785,93.5765472 136.807818,96.7035831 145.928339,98.7882736 C148.534202,99.5700326 150.618893,100.091205 151.661238,100.091205 C154.527687,101.13355 156.872964,101.654723 158.957655,102.175896 C161.042345,102.697068 162.605863,103.218241 163.908795,103.478827 C165.993485,104.521173 168.338762,105.302932 170.423453,106.345277 C173.550489,108.169381 175.895765,110.514658 177.71987,113.641694 C179.543974,117.029316 180.325733,120.416938 180.325733,124.325733 C180.325733,132.664495 177.459283,139.179153 171.986971,143.869707 C166.514658,148.299674 158.436482,150.384365 148.273616,150.384365 C137.589577,150.384365 129.771987,148.039088 124.560261,143.609121 C118.306189,139.179153 115.179153,132.664495 114.65798,123.80456 Z M209.250814,148.560261 C204.039088,148.820847 198.566775,148.820847 192.57329,148.299674 C186.579805,147.778502 183.713355,144.130293 183.713355,136.833876 L183.713355,68.5602606 L192.052117,68.5602606 C194.136808,68.5602606 195.960912,69.3420195 197.52443,70.9055375 C199.087948,72.4690554 199.869707,74.2931596 199.869707,76.3778502 L199.869707,86.8013029 L209.511401,86.8013029 L209.511401,90.1889251 C209.511401,92.534202 208.729642,94.3583062 207.166124,95.9218241 C205.602606,97.485342 203.778502,98.267101 201.693811,98.267101 L200.130293,98.267101 L200.130293,132.664495 C200.130293,135.270358 201.693811,136.57329 204.820847,136.57329 L209.771987,136.57329 L209.771987,148.560261 L209.250814,148.560261 Z M253.029316,146.214984 C249.641694,148.039088 246.254072,149.081433 242.605863,149.34202 C238.957655,149.602606 235.830619,149.863192 232.964169,149.863192 C227.491857,149.863192 222.540717,148.299674 218.371336,145.433225 C214.201954,142.306189 212.117264,137.355049 212.117264,130.319218 C212.117264,123.80456 213.941368,119.114007 217.850163,116.247557 C221.758958,113.381107 226.449511,111.557003 232.442997,110.775244 C233.224756,110.775244 234.267101,110.775244 235.309446,110.514658 C236.351792,110.254072 237.654723,109.993485 238.957655,109.993485 C245.732899,108.95114 249.120521,107.127036 249.120521,104 C249.120521,101.654723 247.81759,100.091205 245.472313,99.5700326 C243.127036,98.7882736 240.781759,98.5276873 238.957655,98.5276873 C236.872964,98.5276873 234.788274,98.7882736 233.224756,99.5700326 C231.400651,100.091205 230.358306,101.394137 229.576547,102.957655 L213.941368,102.957655 C214.462541,98.267101 216.807818,94.0977199 220.456026,90.970684 C224.625407,87.3224756 230.618893,85.4983713 238.436482,85.4983713 C247.035831,85.4983713 253.550489,87.0618893 257.980456,89.9283388 C262.410423,93.0553746 264.7557,97.485342 264.7557,102.957655 L264.7557,124.065147 C264.7557,130.319218 263.713355,135.009772 261.368078,138.65798 C258.762215,142.045603 256.156352,144.651466 253.029316,146.214984 Z M249.381107,117.550489 C247.296417,118.592834 244.169381,119.635179 240.260586,120.677524 L234.788274,121.71987 C231.921824,122.501629 230.09772,123.543974 228.794788,124.846906 C227.752443,126.67101 227.23127,128.234528 227.23127,130.058632 C227.23127,132.403909 228.013029,134.228013 229.315961,135.530945 C230.618893,136.833876 232.703583,137.355049 235.309446,137.355049 C239.739414,137.355049 243.127036,136.052117 245.472313,133.70684 C248.078176,131.100977 249.120521,127.713355 249.120521,123.543974 L249.120521,117.550489 L249.381107,117.550489 Z M268.143322,148.560261 L268.143322,118.592834 C268.143322,112.599349 268.925081,107.387622 270.749186,103.218241 C272.57329,99.0488599 274.918567,95.9218241 278.045603,93.3159609 C280.912052,90.970684 284.560261,89.4071661 288.469055,88.1042345 C292.37785,87.0618893 296.547231,86.5407166 300.716612,86.5407166 L301.758958,86.5407166 L302.801303,86.5407166 L302.801303,102.957655 L297.32899,102.957655 C292.899023,102.957655 289.511401,104 287.42671,106.345277 C285.34202,108.429967 284.299674,111.81759 284.299674,116.508143 L284.299674,148.560261 L268.143322,148.560261 Z M345.537459,144.912052 L345.537459,141.003257 C342.67101,145.433225 339.022801,148.039088 334.332248,149.081433 C329.641694,150.123779 324.95114,149.863192 320.260586,148.039088 C315.570033,146.214984 311.661238,142.827362 308.273616,137.615635 C304.885993,132.664495 303.322476,125.889251 303.322476,117.811075 C303.322476,108.169381 305.407166,100.351792 309.837134,94.3583062 C314.267101,88.3648208 321.302932,85.4983713 331.205212,85.4983713 C338.762215,85.4983713 345.537459,87.5830619 352.052117,91.4918567 C358.306189,95.6612378 361.693811,102.957655 361.693811,113.90228 L361.693811,146.736156 C361.693811,157.680782 358.566775,164.977199 352.052117,168.885993 C345.798046,172.794788 338.762215,174.879479 331.205212,174.879479 C316.872964,174.879479 308.013029,168.104235 304.625407,154.814332 L321.563518,154.814332 C322.86645,156.899023 324.690554,158.723127 327.296417,159.765472 C329.90228,160.807818 332.508143,161.32899 335.114007,160.807818 C337.71987,160.286645 340.065147,158.723127 342.149837,156.37785 C344.234528,153.771987 345.276873,149.863192 345.537459,144.912052 Z M319.218241,118.071661 C319.218241,128.7557 322.345277,134.749186 328.599349,135.791531 C334.85342,136.833876 339.283388,135.530945 342.410423,131.361564 C343.713355,129.537459 344.7557,126.931596 345.537459,123.283388 C346.058632,119.635179 346.319218,115.986971 345.537459,112.338762 C344.7557,108.690554 343.713355,105.563518 341.628664,102.697068 C339.543974,99.8306189 336.677524,98.5276873 332.76873,98.5276873 C327.557003,98.5276873 323.908795,100.351792 322.084691,104.260586 C320,108.690554 319.218241,113.120521 319.218241,118.071661 Z M365.602606,148.560261 L365.602606,118.592834 C365.602606,112.599349 366.384365,107.387622 368.208469,103.218241 C370.032573,99.0488599 372.37785,95.9218241 375.504886,93.3159609 C378.371336,90.970684 382.019544,89.4071661 385.928339,88.1042345 C389.837134,87.0618893 394.006515,86.5407166 398.175896,86.5407166 L399.218241,86.5407166 L400.260586,86.5407166 L400.260586,102.957655 L394.788274,102.957655 C390.358306,102.957655 386.970684,104 384.885993,106.345277 C382.801303,108.429967 381.498371,111.81759 381.498371,116.508143 L381.498371,148.560261 L365.602606,148.560261 Z M404.95114,68.5602606 L413.289902,68.5602606 C415.374593,68.5602606 417.198697,69.3420195 418.762215,70.9055375 C420.325733,72.4690554 421.107492,74.2931596 421.107492,76.3778502 L421.107492,81.3289902 L404.690554,81.3289902 L404.690554,68.5602606 L404.95114,68.5602606 Z M404.95114,86.8013029 L413.289902,86.8013029 C415.374593,86.8013029 417.198697,87.5830619 418.762215,89.1465798 C420.325733,90.7100977 421.107492,92.534202 421.107492,94.6188925 L421.107492,148.560261 L404.690554,148.560261 L404.690554,86.8013029 L404.95114,86.8013029 Z M480,148.560261 L471.921824,148.560261 C469.576547,148.560261 467.752443,147.778502 466.188925,146.214984 C464.625407,144.651466 464.104235,142.827362 464.104235,140.482085 L464.104235,108.690554 C464.104235,105.042345 463.061889,102.175896 460.716612,100.612378 C458.371336,98.7882736 456.026059,98.0065147 453.159609,98.0065147 C450.29316,98.0065147 447.947883,98.7882736 445.602606,100.612378 C443.517915,102.436482 442.214984,105.042345 442.214984,108.690554 L442.214984,148.299674 L425.798046,148.299674 L425.798046,112.078176 C425.798046,101.394137 428.664495,94.3583062 434.136808,90.970684 C439.609121,87.3224756 445.863192,85.4983713 452.37785,85.237785 C459.153094,85.237785 465.407166,87.0618893 471.140065,90.7100977 C476.872964,94.3583062 479.739414,101.394137 479.739414,112.338762 L479.739414,148.560261 L480,148.560261 Z M154.267101,190.775244 L100.325733,151.42671 L66.7100977,175.921824 L79.4788274,136.312704 L45.8631922,111.81759 L87.2964169,111.81759 L108.143322,48.2345277 L100.325733,24 L76.6123779,96.9641694 L0,96.9641694 L61.7589577,142.045603 L38.3061889,215.009772 L100.325733,169.928339 L162.345277,215.009772 L154.267101,190.775244 Z" id="Shape" sketch:type="MSShapeGroup"></path>
        </g>
    </g>
</svg>

<svg width="480" height="240" viewBox="0 0 480 240" xmlns="http://www.w3.org/2000/svg" xmlns:sketch="http://www.bohemiancoding.com/sketch/ns"><title>cover-logo</title><desc>Created with Sketch.</desc><path d="M114.658 123.805h16.417c.521 4.691 2.345 7.818 5.472 9.902 3.127 2.085 7.296 3.388 12.769 3.388 4.691 0 8.339-.782 10.945-2.606 2.606-1.824 3.648-4.169 3.648-7.557 0-4.951-7.036-9.121-20.847-11.987l-.521-.261-1.824-.521c-7.818-1.824-13.29-3.388-15.896-5.472-3.127-1.824-5.212-4.169-6.515-7.557-1.564-2.866-2.345-6.254-2.345-10.684 0-7.557 2.606-13.55 7.818-17.98 5.212-4.169 13.029-6.254 23.192-6.254 9.381 0 16.678 2.085 21.889 6.515 5.212 4.691 8.078 11.205 8.339 18.762h-9.381c-3.648 0-6.254-1.564-7.557-4.951-.782-1.564-1.824-2.866-3.127-3.909-2.866-2.085-6.515-3.127-11.466-3.127-4.691 0-8.078.782-9.902 2.606-2.345 1.824-3.388 4.169-3.388 7.296 0 4.169 4.43 7.296 13.55 9.381 2.606.782 4.691 1.303 5.733 1.303 2.866 1.042 5.212 1.564 7.296 2.085 2.085.521 3.648 1.042 4.951 1.303l6.515 2.866c3.127 1.824 5.472 4.169 7.296 7.296 1.824 3.388 2.606 6.775 2.606 10.684 0 8.339-2.866 14.853-8.339 19.544-5.472 4.43-13.55 6.515-23.713 6.515-10.684 0-18.502-2.345-23.713-6.775-6.254-4.43-9.381-10.945-9.902-19.805zm94.593 24.756c-5.212.261-10.684.261-16.678-.261-5.993-.521-8.86-4.169-8.86-11.466v-68.274h8.339c2.085 0 3.909.782 5.472 2.345 1.564 1.564 2.345 3.388 2.345 5.472v10.423h9.642v3.388c0 2.345-.782 4.169-2.345 5.733-1.564 1.564-3.388 2.345-5.472 2.345h-1.564v34.397c0 2.606 1.564 3.909 4.691 3.909h4.951v11.987h-.521zm43.779-2.345c-3.388 1.824-6.775 2.866-10.423 3.127-3.648.261-6.775.521-9.642.521-5.472 0-10.423-1.564-14.593-4.43-4.169-3.127-6.254-8.078-6.254-15.114 0-6.515 1.824-11.205 5.733-14.072 3.909-2.866 8.599-4.691 14.593-5.472.782 0 1.824 0 2.866-.261s2.345-.521 3.648-.521c6.775-1.042 10.163-2.866 10.163-5.993 0-2.345-1.303-3.909-3.648-4.43-2.345-.782-4.691-1.042-6.515-1.042-2.085 0-4.169.261-5.733 1.042-1.824.521-2.866 1.824-3.648 3.388h-15.635c.521-4.691 2.866-8.86 6.515-11.987 4.169-3.648 10.163-5.472 17.98-5.472 8.599 0 15.114 1.564 19.544 4.43 4.43 3.127 6.775 7.557 6.775 13.029v21.107c0 6.254-1.042 10.945-3.388 14.593-2.606 3.388-5.212 5.993-8.339 7.557zm-3.648-28.664c-2.085 1.042-5.212 2.085-9.121 3.127l-5.472 1.042c-2.866.782-4.691 1.824-5.993 3.127-1.042 1.824-1.564 3.388-1.564 5.212 0 2.345.782 4.169 2.085 5.472 1.303 1.303 3.388 1.824 5.993 1.824 4.43 0 7.818-1.303 10.163-3.648 2.606-2.606 3.648-5.993 3.648-10.163v-5.993h.261zm18.762 31.01v-29.967c0-5.993.782-11.205 2.606-15.375 1.824-4.169 4.169-7.296 7.296-9.902 2.866-2.345 6.515-3.909 10.423-5.212 3.909-1.042 8.078-1.564 12.248-1.564h2.084v16.417h-5.472c-4.43 0-7.818 1.042-9.902 3.388-2.085 2.085-3.127 5.472-3.127 10.163v32.052h-16.156zm77.394-3.648v-3.909c-2.866 4.43-6.515 7.036-11.205 8.078-4.691 1.042-9.381.782-14.072-1.042-4.691-1.824-8.599-5.212-11.987-10.423-3.388-4.951-4.951-11.726-4.951-19.805 0-9.642 2.085-17.459 6.515-23.453 4.43-5.993 11.466-8.86 21.368-8.86 7.557 0 14.332 2.085 20.847 5.993 6.254 4.169 9.642 11.466 9.642 22.41v32.834c0 10.945-3.127 18.241-9.642 22.15-6.254 3.909-13.29 5.993-20.847 5.993-14.332 0-23.192-6.775-26.58-20.065h16.938c1.303 2.085 3.127 3.909 5.733 4.951 2.606 1.042 5.212 1.564 7.818 1.042 2.606-.521 4.951-2.085 7.036-4.43 2.085-2.606 3.127-6.515 3.388-11.466zm-26.319-26.84c0 10.684 3.127 16.678 9.381 17.72 6.254 1.042 10.684-.261 13.811-4.43 1.303-1.824 2.345-4.43 3.127-8.078.521-3.648.782-7.296 0-10.945-.782-3.648-1.824-6.775-3.909-9.642-2.085-2.866-4.951-4.169-8.86-4.169-5.212 0-8.86 1.824-10.684 5.733-2.085 4.43-2.866 8.86-2.866 13.811zm46.384 30.489v-29.967c0-5.993.782-11.205 2.606-15.375 1.824-4.169 4.169-7.296 7.296-9.902 2.866-2.345 6.515-3.909 10.423-5.212 3.909-1.042 8.078-1.564 12.248-1.564h2.084v16.417h-5.472c-4.43 0-7.818 1.042-9.902 3.388-2.085 2.085-3.388 5.472-3.388 10.163v32.052h-15.896zm39.349-80h8.339c2.085 0 3.909.782 5.472 2.345 1.564 1.564 2.345 3.388 2.345 5.472v4.951h-16.417v-12.769h.261zm0 18.241h8.339c2.085 0 3.909.782 5.472 2.345 1.564 1.564 2.345 3.388 2.345 5.472v53.941h-16.417v-61.759h.261zm75.049 61.759h-8.078c-2.345 0-4.169-.782-5.733-2.345-1.564-1.564-2.085-3.388-2.085-5.733v-31.792c0-3.648-1.042-6.515-3.388-8.078-2.345-1.824-4.691-2.606-7.557-2.606-2.866 0-5.212.782-7.557 2.606-2.085 1.824-3.388 4.43-3.388 8.078v39.609h-16.417v-36.221c0-10.684 2.866-17.72 8.339-21.107 5.472-3.648 11.726-5.472 18.241-5.733 6.775 0 13.029 1.824 18.762 5.472 5.733 3.648 8.599 10.684 8.599 21.629v36.221h.261zm-325.733 42.215l-53.941-39.349-33.616 24.495 12.769-39.609-33.616-24.495h41.433l20.847-63.583-7.818-24.235-23.713 72.964h-76.612l61.759 45.081-23.453 72.964 62.02-45.081 62.02 45.081-8.078-24.235z" sketch:type="MSShapeGroup" fill="#fff"/></svg>
